src/assets/linkedin.svg

<svg width="24" height="24" viewBox="0 0 24 24" fill="none" xmlns="http://www.w3.org/2000/svg">
<path fill-rule="evenodd" clip-rule="evenodd" d="M9.42898 8.96882H13.143V10.8188C13.678 9.75482 15.05 8.79882 17.111 8.79882C21.062 8.79882 22 10.9168 22 14.8028V21.9998H18V15.6878C18 13.4748 17.465 12.2268 16.103 12.2268C14.214 12.2268 13.429 13.5718 13.429 15.6868V21.9998H9.42898V8.96882ZM2.56998 21.8298H6.56998V8.79882H2.56998V21.8298ZM7.14298 4.54982C7.14313 4.88509 7.07664 5.21705 6.94737 5.5264C6.8181 5.83576 6.62864 6.11633 6.38998 6.35182C5.90639 6.83244 5.25179 7.10147 4.56998 7.09982C3.88937 7.09936 3.2363 6.83102 2.75198 6.35282C2.5142 6.11653 2.32537 5.83564 2.19633 5.52625C2.06729 5.21686 2.00056 4.88504 1.99998 4.54982C1.99998 3.87282 2.26998 3.22482 2.75298 2.74682C3.23687 2.26798 3.89022 1.99952 4.57098 1.99982C5.25298 1.99982 5.90698 2.26882 6.38998 2.74682C6.87198 3.22482 7.14298 3.87282 7.14298 4.54982Z" fill="black"/>
</svg>

<svg xmlns="http://www.w3.org/2000/svg" width="24" height="24" fill="none"><path fill="#000" fill-rule="evenodd" d="M9.429 8.969h3.714v1.85c.535-1.064 1.907-2.02 3.968-2.02 3.951 0 4.889 2.118 4.889 6.004V22h-4v-6.312c0-2.213-.535-3.461-1.897-3.461-1.889 0-2.674 1.345-2.674 3.46V22h-4zM2.57 21.829h4V8.8h-4zM7.143 4.55a2.53 2.53 0 0 1-.753 1.803 2.59 2.59 0 0 1-3.638.001A2.55 2.55 0 0 1 2 4.55c0-.677.27-1.325.753-1.803a2.583 2.583 0 0 1 3.637 0c.482.478.753 1.126.753 1.803" clip-rule="evenodd"/></svg>
